X: 354
U:~=!turn!
M:C|
L:1/8
K:E aeolian
[2 GFEF GABg | fe^df e/e/e e || f | gfef gabg | {/g}fedg fgaf | gfef gabg |
fdaf e/e/e (ef) | gfef gabg | {/g}fedg fgaf | gef^d egfe | dBAF E/E/E E |]


